assets/img/braze_icons/cloud-sun-02.svg

<svg fill="none" height="24" viewBox="0 0 24 24" width="24" xmlns="http://www.w3.org/2000/svg"><g fill="#801ed7"><path d="m11.5 1.5c0-.552285-.4477-1-1-1-.55229 0-1 .447715-1 1v1.6c0 .55229.44771 1 1 1 .5523 0 1-.44771 1-1z"/><path d="m2 9c-.55228 0-1 .44771-1 1 0 .5523.44772 1 1 1h1.6c.55229 0 1-.4477 1-1 0-.55228-.44771-1-1-1z"/><path d="m3.61272 3.11272c.39052-.39053 1.02369-.39053 1.41421 0l1.13137 1.13137c.39053.39052.39053 1.02369 0 1.41421-.39052.39053-1.02369.39053-1.41421 0l-1.13137-1.13137c-.39053-.39052-.39053-1.02369 0-1.41421z"/><path d="m17.3883 4.52693c.3905-.39052.3905-1.02369 0-1.41421-.3905-.39053-1.0237-.39053-1.4142 0l-1.1314 1.13137c-.3905.39052-.3905 1.02369 0 1.41421.3905.39053 1.0237.39053 1.4142 0z"/><path d="m16.4 10c0-.55229.4477-1 1-1h1.6c.5523 0 1 .44772 1 1 0 .5523-.4477 1-1 1h-1.6c-.5523 0-1-.4477-1-1z"/><path d="m7.50012 10c0-1.65685 1.34315-3 2.99998-3 1.1282 0 2.1124.62233 2.6256 1.54719.268.48292.8767.65717 1.3596.3892.4829-.26798.6572-.87669.3892-1.35961-.8515-1.53454-2.4905-2.57678-4.3744-2.57678-2.7614 0-4.99998 2.23858-4.99998 5 0 .5523.44772 1 1 1 .55229 0 1-.4477 1-1z"/><path d="m12 10c-2.24632 0-4.20249 1.2341-5.23069 3.059-.25111-.0389-.50808-.059-.76931-.059-2.76142 0-5 2.2386-5 5s2.23858 5 5 5h12c2.7614 0 5-2.2386 5-5s-2.2386-5-5-5c-.2612 0-.5182.0201-.7693.059-1.0282-1.8249-2.9844-3.059-5.2307-3.059z"/></g></svg>

<svg width="24" height="24" viewBox="0 0 24 24" fill="none" xmlns="http://www.w3.org/2000/svg">
<path d="M11.5 1.5C11.5 0.947715 11.0523 0.5 10.5 0.5C9.94771 0.5 9.5 0.947715 9.5 1.5V3.1C9.5 3.65229 9.94771 4.1 10.5 4.1C11.0523 4.1 11.5 3.65229 11.5 3.1V1.5Z" fill="#801ED7"/>
<path d="M2 9C1.44772 9 1 9.44771 1 10C1 10.5523 1.44772 11 2 11H3.6C4.15229 11 4.6 10.5523 4.6 10C4.6 9.44772 4.15229 9 3.6 9H2Z" fill="#801ED7"/>
<path d="M3.61272 3.11272C4.00324 2.72219 4.63641 2.72219 5.02693 3.11272L6.1583 4.24409C6.54883 4.63461 6.54883 5.26778 6.1583 5.6583C5.76778 6.04883 5.13461 6.04883 4.74409 5.6583L3.61272 4.52693C3.22219 4.13641 3.22219 3.50324 3.61272 3.11272Z" fill="#801ED7"/>
<path d="M17.3883 4.52693C17.7788 4.13641 17.7788 3.50324 17.3883 3.11272C16.9978 2.72219 16.3646 2.72219 15.9741 3.11272L14.8427 4.24409C14.4522 4.63461 14.4522 5.26778 14.8427 5.6583C15.2332 6.04883 15.8664 6.04883 16.2569 5.6583L17.3883 4.52693Z" fill="#801ED7"/>
<path d="M16.4 10C16.4 9.44771 16.8477 9 17.4 9H19C19.5523 9 20 9.44772 20 10C20 10.5523 19.5523 11 19 11H17.4C16.8477 11 16.4 10.5523 16.4 10Z" fill="#801ED7"/>
<path d="M7.50012 10C7.50012 8.34315 8.84327 7 10.5001 7C11.6283 7 12.6125 7.62233 13.1257 8.54719C13.3937 9.03011 14.0024 9.20436 14.4853 8.93639C14.9682 8.66841 15.1425 8.0597 14.8745 7.57678C14.023 6.04224 12.384 5 10.5001 5C7.7387 5 5.50012 7.23858 5.50012 10C5.50012 10.5523 5.94784 11 6.50012 11C7.05241 11 7.50012 10.5523 7.50012 10Z" fill="#801ED7"/>
<path d="M12 10C9.75368 10 7.79751 11.2341 6.76931 13.059C6.5182 13.0201 6.26123 13 6 13C3.23858 13 1 15.2386 1 18C1 20.7614 3.23858 23 6 23H18C20.7614 23 23 20.7614 23 18C23 15.2386 20.7614 13 18 13C17.7388 13 17.4818 13.0201 17.2307 13.059C16.2025 11.2341 14.2463 10 12 10Z" fill="#801ED7"/>
</svg>
